X: 17037
T: Hearty Boys Of Ballymote, The
R: jig
M: 6/8
K: Adorian
|:B|cAA EAA|BAB GBd|cAA E2 A|BAG A2 B|
cAA E2 A|BB/B/B GB/c/d|ea/a/a ege|dBG A2:|
|:f|gag gfe|dBG Bdd|e2 a aga|bag e2 d|
g2 g gfe|d2 G Bcd|eaa e/f/ge|dBG A2:|

